crypto/bsw.svg

<svg fill="none" height="32" viewBox="0 0 32 32" width="32" xmlns="http://www.w3.org/2000/svg" xmlns:xlink="http://www.w3.org/1999/xlink"><linearGradient id="a" gradientUnits="userSpaceOnUse" x1="25.6081" x2="21.8334" y1="10.2101" y2="31.0052"><stop offset="0" stop-color="#ff496a"/><stop offset="1" stop-color="#e42648"/></linearGradient><linearGradient id="b" gradientUnits="userSpaceOnUse" x1="7.72265" x2="16.0685" y1="23.5688" y2="-.000005"><stop offset=".00181229" stop-color="#1158f1"/><stop offset="1" stop-color="#119bed"/></linearGradient><path d="m15.9999 31.9949c8.8338 0 15.995-7.1612 15.995-15.995 0-8.83382-7.1612-15.99501719-15.995-15.99501719-8.83382 0-15.99501719 7.16119719-15.99501719 15.99501719 0 8.8338 7.16119719 15.995 15.99501719 15.995z" fill="#fff"/><path d="m28.3928 6.01953c-1.1096.21935-2.1676.52904-3.0386.72256-1.9871.44519-3.8452 1.96777-4.2516 4.75481-.3613 2.4903.4774 3.5613.1097 6.458-.6452 5.058-5.4967 6.7999-7.7613 7.858-1.3096.6064-4.49024 2-6.94184 3.0645 2.65806 1.9613 5.93544 3.1226 9.49024 3.1226 8.8387 0 15.9999-7.1613 15.9999-15.9999 0-3.7677-1.3032-7.23221-3.4838-9.96119-.0387-.0065-.0775-.01294-.1227-.01938z" fill="url(#a)"/><path d="m14.1999 13.6515c1.2322-2.6645.7871-2.671 1.7226-5.17414 1.1806-3.17418 4.8515-2.27097 5.8644-2.13547 1.671.22578 2.1097-.36772 5.6322-.93549.1742-.0258.342-.05161.5097-.07097-2.929-3.27093-7.187-5.33543-11.9289-5.33543-6.36774 0-11.86445 3.71609-14.43862 9.10313 5.27738 1.30967 10.97412 4.15487 12.63862 4.54837zm-3.4968-10.86443c.4645.07097 2.7226 2.87739 3.1484 10.08383 0 0-2.9032-.6968-3.529-2.1936-.51614-1.23222.1548-2.85159.3806-7.89023zm17.787 3.2193c.0065.01294.0193.01938.0258.03226-.0387-.00644-.0839-.00644-.1226-.01288.0323-.01288.0646-.01288.0968-.01938zm-28.4901 9.99353c0-1.2774.148386-2.5162.432255-3.7032.580635.4838 1.199985 1.0193 1.858055 1.6322 4.16769 3.8645 10.94829 6.9161 13.41929 4.0774.0064.0064.0128.0064.0128.0129-.4516.5935-2.1741 2.471-5.4644 1.8903l-5.19998 7.7612c-3.10965-2.9161-5.05802-7.0644-5.05802-11.6708z" fill="url(#b)"/></svg>

<svg width="32" height="32" fill="none" xmlns="http://www.w3.org/2000/svg"><path d="M16 31.995c8.834 0 15.995-7.161 15.995-15.995S24.834.005 16 .005.005 7.166.005 16 7.166 31.995 16 31.995Z" fill="#fff"/><path d="M28.393 6.02c-1.11.219-2.168.529-3.039.722-1.987.445-3.845 1.968-4.251 4.755-.362 2.49.477 3.561.11 6.458-.646 5.058-5.497 6.8-7.762 7.858-1.31.606-4.49 2-6.942 3.064A15.92 15.92 0 0 0 16 32c8.84 0 16-7.161 16-16 0-3.768-1.303-7.232-3.483-9.961a4.785 4.785 0 0 0-.123-.02Z" fill="url(#a)"/><path d="M14.2 13.652c1.232-2.665.787-2.671 1.723-5.175 1.18-3.174 4.851-2.27 5.864-2.135 1.67.226 2.11-.368 5.632-.936.174-.025.342-.051.51-.07A15.97 15.97 0 0 0 15.999 0C9.633 0 4.136 3.716 1.562 9.103c5.278 1.31 10.974 4.155 12.639 4.549ZM10.703 2.787c.465.071 2.723 2.877 3.149 10.084 0 0-2.904-.697-3.53-2.194-.516-1.232.155-2.851.381-7.89Zm17.787 3.22c.007.012.02.019.026.032-.039-.007-.084-.007-.123-.013.033-.013.065-.013.097-.02ZM0 16c0-1.277.148-2.516.432-3.703.58.483 1.2 1.019 1.858 1.632 4.168 3.864 10.949 6.916 13.42 4.077.006.007.012.007.012.013-.451.594-2.174 2.471-5.464 1.89l-5.2 7.762A15.954 15.954 0 0 1 0 16Z" fill="url(#b)"/><defs><linearGradient id="a" x1="25.608" y1="10.21" x2="21.833" y2="31.005" gradientUnits="userSpaceOnUse"><stop stop-color="#FF496A"/><stop offset="1" stop-color="#E42648"/></linearGradient><linearGradient id="b" x1="7.723" y1="23.569" x2="16.069" y2="0" gradientUnits="userSpaceOnUse"><stop offset=".002" stop-color="#1158F1"/><stop offset="1" stop-color="#119BED"/></linearGradient></defs></svg>
